X:35
M:4/4
L:1/4
K:Eb
E2 E E | (F D) E2 | G2 G G | (A F) G2 | B2 .(e c) | B2 (A G) | A2 G2 | F4 | B2 c B | (B G) A2 | A2 B A | (A F) G2 | !sintro!G2 G G | B3 A | G2 F2 | E4 !eintro!|]
